X:1
T:Gaol Song
M:4/4
L:1/4
K:F
 E| FE/2-D/2 A G| F F D E| F G A G| F- D D E| F F A G| F D D E| F G A G|\
 F- D D D/2E/2| F E/2E/2 D2| F E/2E/2 D E/2E/2| F G/2G/2 A G/2G/2|\
 F D D||

